X: 794
P: Longways for as many as will
M: 6/4
L: 1/4
K: Bb
f>gf d>cB | (eg)a b2g | (fd)B (EG)c | A3 F2c |\
f>gf dcB | (ef)g _a2g | fAc FBc | d3 B2 :|
|: A/B/ |\
c>dB AdG | F2E D2f | gBd Gcd | d3 c2c |\
f>gf dcB | (ef)g _a2g | fAc FBc | d3 B2 :|

